src/assets/add-load-icon.svg

<svg width="21" height="21" viewBox="0 0 432 384" fill="none" xmlns="http://www.w3.org/2000/svg">
<path d="M253.28 296.637L221.28 308.237C220.264 308.572 219.326 309.107 218.521 309.811C217.716 310.516 217.06 311.374 216.592 312.336C216.125 313.298 215.855 314.344 215.798 315.412C215.742 316.48 215.9 317.549 216.264 318.555C216.628 319.56 217.19 320.483 217.916 321.268C218.643 322.053 219.52 322.684 220.494 323.125C221.469 323.565 222.522 323.805 223.592 323.831C224.661 323.857 225.725 323.669 226.72 323.277L258.72 311.677C260.657 310.913 262.221 309.424 263.078 307.526C263.935 305.628 264.018 303.471 263.31 301.512C262.602 299.554 261.158 297.949 259.285 297.039C257.412 296.128 255.258 295.984 253.28 296.637ZM224 291.837C224.928 291.835 225.848 291.673 226.72 291.357L242.72 285.517C244.657 284.753 246.221 283.264 247.078 281.366C247.935 279.468 248.018 277.311 247.31 275.352C246.602 273.394 245.158 271.789 243.285 270.879C241.412 269.968 239.258 269.824 237.28 270.477L221.28 276.317C219.512 276.958 218.027 278.202 217.085 279.83C216.143 281.458 215.805 283.365 216.129 285.218C216.454 287.07 217.421 288.749 218.86 289.959C220.3 291.17 222.119 291.834 224 291.837Z" fill="white"/>
<path d="M432 207.437C431.977 188.3 425.717 169.692 414.168 154.433C402.619 139.174 386.411 128.096 368 122.877V71.4366C367.983 70.4772 367.793 69.5288 367.44 68.6366V67.8366C367.133 67.2595 366.757 66.7222 366.32 66.2366L365.68 65.5966C365.17 65.1538 364.605 64.7775 364 64.4766H363.36L187.36 0.476597C185.602 -0.158866 183.678 -0.158866 181.92 0.476597L5.92 64.4766H5.28C4.67494 64.7775 4.11045 65.1538 3.6 65.5966L2.96 66.2366C2.52272 66.7222 2.14659 67.2595 1.84 67.8366V68.6366C1.03591 69.4296 0.408824 70.3838 0 71.4366V311.437C0.000699517 313.081 0.507939 314.685 1.45269 316.03C2.39745 317.376 3.73384 318.398 5.28 318.957L181.28 382.957C182.152 383.273 183.072 383.435 184 383.437C184.816 383.426 185.625 383.292 186.4 383.037L362.4 319.037C364.019 318.528 365.434 317.517 366.441 316.151C367.447 314.784 367.993 313.134 368 311.437V291.997C386.411 286.777 402.619 275.699 414.168 260.44C425.717 245.181 431.977 226.573 432 207.437ZM184 126.957L155.84 116.717L299.04 58.1566L336.56 71.4366L184 126.957ZM80 106.157L120 120.717V156.157L101.68 137.837C100.645 136.822 99.3547 136.108 97.9457 135.769C96.5367 135.431 95.0623 135.482 93.68 135.917L80 140.317V106.157ZM96 94.8766L242.96 38.8766C243.529 38.6201 244.066 38.2979 244.56 37.9166L277.2 49.8366L133.2 108.557L96 94.8766ZM184 15.9166L221.92 29.7566L72.88 86.5566L31.44 71.4366L184 15.9166ZM16 305.837V82.8766L64 100.317V151.437C63.9967 152.709 64.2968 153.963 64.8754 155.096C65.454 156.229 66.2944 157.207 67.3268 157.95C68.3593 158.694 69.5541 159.18 70.812 159.369C72.07 159.557 73.3548 159.444 74.56 159.037L93.84 152.637L122.32 181.117C123.439 182.245 124.869 183.014 126.427 183.327C127.985 183.639 129.6 183.481 131.068 182.872C132.535 182.262 133.788 181.23 134.667 179.906C135.545 178.581 136.009 177.026 136 175.437V126.477L176 141.037V363.997L16 305.837ZM352 305.837L192 363.997V141.037L352 82.8766V119.837C349.36 119.837 346.72 119.437 344 119.437C320.661 119.437 298.278 128.708 281.775 145.211C265.271 161.714 256 184.098 256 207.437C256 230.776 265.271 253.159 281.775 269.662C298.278 286.165 320.661 295.437 344 295.437C346.72 295.437 349.36 295.437 352 295.037V305.837ZM344 279.437C329.76 279.437 315.839 275.214 303.999 267.302C292.159 259.391 282.93 248.146 277.481 234.99C272.031 221.834 270.605 207.357 273.383 193.39C276.162 179.423 283.019 166.594 293.088 156.525C303.158 146.456 315.987 139.598 329.953 136.82C343.92 134.042 358.397 135.468 371.553 140.917C384.709 146.367 395.954 155.595 403.866 167.436C411.777 179.276 416 193.196 416 207.437C416 226.532 408.414 244.846 394.912 258.348C381.409 271.851 363.096 279.437 344 279.437Z" fill="white"/>
<path d="M376 199.437H352V175.437C352 173.315 351.157 171.28 349.657 169.78C348.157 168.279 346.122 167.437 344 167.437C341.878 167.437 339.843 168.279 338.343 169.78C336.843 171.28 336 173.315 336 175.437V199.437H312C309.878 199.437 307.843 200.279 306.343 201.78C304.843 203.28 304 205.315 304 207.437C304 209.558 304.843 211.593 306.343 213.093C307.843 214.594 309.878 215.437 312 215.437H336V239.437C336 241.558 336.843 243.593 338.343 245.093C339.843 246.594 341.878 247.437 344 247.437C346.122 247.437 348.157 246.594 349.657 245.093C351.157 243.593 352 241.558 352 239.437V215.437H376C378.122 215.437 380.157 214.594 381.657 213.093C383.157 211.593 384 209.558 384 207.437C384 205.315 383.157 203.28 381.657 201.78C380.157 200.279 378.122 199.437 376 199.437Z" fill="white"/>
</svg>

<svg width="21" height="21" viewBox="0 0 432 384" fill="none" xmlns="http://www.w3.org/2000/svg"><path d="M253.28 296.637l-32 11.6a7.992 7.992 0 00-4.688 4.099 8.006 8.006 0 003.902 10.789 8.003 8.003 0 006.226.152l32-11.6a8.004 8.004 0 004.59-10.165 7.996 7.996 0 00-10.03-4.875zm-29.28-4.8a8.033 8.033 0 002.72-.48l16-5.84a8.004 8.004 0 004.59-10.165 7.996 7.996 0 00-10.03-4.875l-16 5.84a7.995 7.995 0 00-5.151 8.901 8.002 8.002 0 007.871 6.619z" fill="#fff"/><path d="M432 207.437a88.003 88.003 0 00-64-84.56v-51.44a7.996 7.996 0 00-.56-2.8v-.8a8.028 8.028 0 00-1.12-1.6l-.64-.64a7.99 7.99 0 00-1.68-1.12h-.64l-176-64a8 8 0 00-5.44 0l-176 64h-.64a8 8 0 00-1.68 1.12l-.64.64a8 8 0 00-1.12 1.6v.8a8 8 0 00-1.84 2.8v240a7.997 7.997 0 005.28 7.52l176 64a8.033 8.033 0 002.72.48 8.022 8.022 0 002.4-.4l176-64a8.003 8.003 0 005.6-7.6v-19.44a88.006 88.006 0 0064-84.56zm-248-80.48l-28.16-10.24 143.2-58.56 37.52 13.28L184 126.957zm-104-20.8l40 14.56v35.44l-18.32-18.32a7.996 7.996 0 00-8-1.92l-13.68 4.4v-34.16zm16-11.28l146.96-56a7.998 7.998 0 001.6-.96l32.64 11.92-144 58.72L96 94.877zm88-78.96l37.92 13.84-149.04 56.8-41.44-15.12L184 15.917zM16 305.837V82.877l48 17.44v51.12a7.999 7.999 0 0010.56 7.6l19.28-6.4 28.48 28.48a8.006 8.006 0 008.748 1.755 8.012 8.012 0 003.599-2.966 8.007 8.007 0 001.333-4.469v-48.96l40 14.56v222.96l-160-58.16zm336 0l-160 58.16v-222.96l160-58.16v36.96c-2.64 0-5.28-.4-8-.4a88 88 0 100 176c2.72 0 5.36 0 8-.4v10.8zm-8-26.4a71.996 71.996 0 01-66.519-44.447 71.998 71.998 0 0152.472-98.17 72.006 72.006 0 0173.913 30.616A72 72 0 01344 279.437z" fill="#fff"/><path d="M376 199.437h-24v-24a8 8 0 10-16 0v24h-24a7.996 7.996 0 00-8 8 8 8 0 008 8h24v24a8 8 0 0016 0v-24h24a7.997 7.997 0 008-8 8 8 0 00-8-8z" fill="#fff"/></svg>
